Newaita-dark/apps/48/eclipse.svg

<svg height="48pt" viewBox="0 0 48 48" width="48pt" xmlns="http://www.w3.org/2000/svg" xmlns:xlink="http://www.w3.org/1999/xlink"><linearGradient id="a" gradientUnits="userSpaceOnUse" x1="12.899674" x2="12.899674" y1="42.1084375" y2="4.4016940001"><stop offset="0" stop-color="#ff7043"/><stop offset="1" stop-color="#ff8a65"/></linearGradient><linearGradient id="b"><stop offset="0" stop-opacity=".313725"/><stop offset=".222222" stop-opacity=".27451"/><stop offset="1" stop-opacity="0"/></linearGradient><radialGradient id="c" cx="450.908936" cy="189.579361" gradientTransform="matrix(.00000026 -.117199 -.210958 -.00000015 68.572774 95.392994)" gradientUnits="userSpaceOnUse" r="21.166656" xlink:href="#b"/><radialGradient id="d" cx="450.908936" cy="189.579361" gradientTransform="matrix(-.00000026 .117199 .210958 .00000015 -17.367132 -11.291223)" gradientUnits="userSpaceOnUse" r="21.166656" xlink:href="#b"/><radialGradient id="e" cx="450.908936" cy="189.579361" gradientTransform="matrix(-.00000026 -.117199 .210958 -.00000015 -17.367132 95.392994)" gradientUnits="userSpaceOnUse" r="21.166656" xlink:href="#b"/><radialGradient id="f" cx="450.908936" cy="189.579361" gradientTransform="matrix(.00000026 .117199 -.210958 .00000015 68.572771 -11.291224)" gradientUnits="userSpaceOnUse" r="21.166656" xlink:href="#b"/><linearGradient id="g" gradientTransform="matrix(.0200401 0 0 .093759 20.486125 20.158175)" gradientUnits="userSpaceOnUse" x1="255.323059" x2="255.323044" y1="233.5" y2="254.666656"><stop offset="0" stop-opacity=".27451"/><stop offset="1" stop-opacity="0"/></linearGradient><linearGradient id="h" gradientUnits="userSpaceOnUse" x1="25.602832" x2="25.602832" y1="4.34415649995" y2="42.0509015"><stop offset="0" stop-color="#b39ddb"/><stop offset="1" stop-color="#7e57c2"/></linearGradient><linearGradient id="i"><stop offset="0" stop-color="#bdbdbd"/><stop offset="1" stop-color="#eee"/></linearGradient><linearGradient id="j" gradientTransform="matrix(.111634 0 0 .0703192 -4.917938 20.918028)" gradientUnits="userSpaceOnUse" x1="275.166656" x2="275.166656" xlink:href="#i" y1="-168.666656" y2="233.5"/><linearGradient id="k" gradientTransform="matrix(.111634 0 0 .0703192 -4.917938 20.918028)" gradientUnits="userSpaceOnUse" x1="275.160614" x2="275.160614" xlink:href="#i" y1="300.527557" y2="-235.694687"/><path d="m21.832031 4.402344c-10.445312 0-18.855469 8.40625-18.855469 18.851562 0 10.445313 8.410157 18.855469 18.855469 18.855469.5 0 .996094-.019531 1.488281-.058594-9.746093-.753906-17.367187-8.851562-17.367187-18.796875 0-9.941406 7.621094-18.039062 17.367187-18.792968-.492187-.039063-.988281-.058594-1.488281-.058594zm0 0" fill="url(#a)"/><path d="m29.074219 42.050781h3.972656v-1.984375h-3.972656zm0 0" fill="url(#c)"/><path d="m22.128906 42.050781h-3.96875v1.984375h3.96875zm0 0" fill="url(#d)"/><path d="m22.128906 42.050781h-3.96875v-1.984375h3.96875zm0 0" fill="url(#e)"/><path d="m29.074219 42.050781h3.972656v1.984375h-3.972656zm0 0" fill="url(#f)"/><path d="m22.128906 41.554688h6.945313v2.480468h-6.945313zm0 0" fill="url(#g)"/><path d="m25.601562 4.34375c10.414063 0 18.855469 8.441406 18.855469 18.855469 0 10.410156-8.441406 18.851562-18.855469 18.851562-10.410156 0-18.851562-8.441406-18.851562-18.851562 0-10.414063 8.441406-18.855469 18.851562-18.855469zm0 0" fill="url(#h)"/><path d="m25.601562 42.050781c-10.445312 0-18.851562-8.410156-18.851562-18.851562 0-.0625 0-.125 0-.1875.097656 10.359375 8.46875 18.667969 18.851562 18.667969 10.382813 0 18.753907-8.308594 18.851563-18.667969.003906.0625.003906.125.003906.1875 0 10.441406-8.410156 18.851562-18.855469 18.851562zm0 0" fill-opacity=".196078"/><path d="m25.601562 4.34375c-10.445312 0-18.851562 8.410156-18.851562 18.855469v.183593c.097656-10.359374 8.46875-18.667968 18.851562-18.667968 10.382813 0 18.753907 8.308594 18.851563 18.667968.003906-.0625.003906-.125.003906-.183593 0-10.445313-8.410156-18.855469-18.855469-18.855469zm0 0" fill="#fff" fill-opacity=".392157"/><path d="m8.265625 15.753906c-.410156.957032-.742187 1.949219-.988281 2.976563h36.652344c-.25-1.027344-.582032-2.019531-.988282-2.976563zm-1.457031 5.957032c-.039063.488281-.058594.984374-.058594 1.488281 0 .5.019531.996093.058594 1.488281h37.589844c.039062-.492188.058593-.988281.058593-1.488281 0-.503907-.019531-1-.058593-1.488281zm.46875 5.953124c.246094 1.027344.578125 2.023438.988281 2.976563h34.675781c.40625-.953125.738282-1.949219.988282-2.976563zm0 0" fill="url(#j)"/><path d="m8.265625 15.753906c-.410156.957032-.742187 1.949219-.988281 2.976563h36.652344c-.25-1.027344-.582032-2.019531-.988282-2.976563zm-1.457031 5.957032c-.039063.488281-.058594.984374-.058594 1.488281 0 .5.019531.996093.058594 1.488281h37.589844c.039062-.492188.058593-.988281.058593-1.488281 0-.503907-.019531-1-.058593-1.488281zm.46875 5.953124c.246094 1.027344.578125 2.023438.988281 2.976563h34.675781c.40625-.953125.738282-1.949219.988282-2.976563zm0 0" fill="url(#k)"/><path d="m7.402344 18.730469c-.042969.167969-.085938.332031-.125.496093h36.652344c-.042969-.164062-.082032-.328124-.128907-.496093zm-.652344 4.714843v.25c0 .5.019531.996094.058594 1.488282h37.589844c.039062-.492188.058593-.988282.058593-1.488282 0-.085937 0-.167968-.003906-.25-.003906.417969-.023437.832032-.054687 1.242188h-37.589844c-.035156-.410156-.050782-.824219-.058594-1.242188zm.527344 4.714844c.246094 1.027344.578125 2.023438.988281 2.976563h34.675781c.40625-.953125.738282-1.949219.988282-2.976563h-.128907c-.230469.851563-.519531 1.679688-.859375 2.480469h-34.675781c-.34375-.800781-.632813-1.628906-.863281-2.480469zm0 0" fill="#fff" fill-opacity=".392157"/><path d="m25.601562 4.203125c-10.519531 0-18.992187 8.472656-18.992187 18.996094 0 10.519531 8.472656 18.992187 18.992187 18.992187 10.519532 0 18.996094-8.472656 18.996094-18.992187 0-10.523438-8.476562-18.996094-18.996094-18.996094zm0 .28125c10.371094 0 18.714844 8.34375 18.714844 18.714844 0 10.367187-8.34375 18.710937-18.714844 18.710937-10.367187 0-18.710937-8.34375-18.710937-18.710937 0-10.371094 8.34375-18.714844 18.710937-18.714844zm0 0" fill="#212121"/><path d="m8.265625 15.753906c-.410156.957032-.742187 1.949219-.988281 2.976563h.125c.230468-.851563.519531-1.679688.863281-2.480469h34.675781c.339844.800781.628906 1.628906.859375 2.480469h.128907c-.25-1.027344-.582032-2.019531-.988282-2.976563zm-1.457031 5.957032c-.039063.488281-.058594.984374-.058594 1.488281v.246093c.007812-.417968.023438-.832031.058594-1.238281h37.589844c.03125.40625.050781.820313.054687 1.238281.003906-.082031.003906-.164062.003906-.246093 0-.503907-.019531-1-.058593-1.488281zm.46875 5.953124c.039062.164063.082031.332032.125.496094h36.398437c.046875-.164062.085938-.332031.128907-.496094zm0 0" fill-opacity=".235294"/><path d="m333.196545 635.057499c-16.533855 38.578995-29.918404 78.575177-39.838717 119.988548h1477.496779c-10.077778-41.413371-23.462328-81.409553-39.838717-119.988548zm-58.734551 240.134561c-1.574653 19.683161-2.36198 39.681252-2.36198 59.994274 0 20.155556.787327 40.153648 2.36198 59.994274h1515.288447c1.574653-19.840626 2.36198-39.838718 2.36198-59.994274 0-20.313022-.787327-40.311113-2.36198-59.994274zm18.895834 239.977096c9.920313 41.41337 23.304862 81.567018 39.838717 119.988548h1397.819345c16.376389-38.42153 29.760939-78.575178 39.838717-119.988548zm0 0" fill="none" stroke="#212121" stroke-linecap="round" stroke-linejoin="round" stroke-width="11.338583" transform="scale(.0248071)"/><path d="m14.546875 9.800781c1.636719-1.003906 3.484375-.964843 4.128906.082031.644531 1.050782-.15625 2.71875-1.789062 3.722657-1.632813 1.003906-3.480469.96875-4.128907-.082031-.644531-1.050782.15625-2.71875 1.789063-3.722657zm0 0" fill="#fff" fill-opacity=".392157"/></svg>

<?xml version="1.0" encoding="UTF-8"?>
<svg xmlns="http://www.w3.org/2000/svg" xmlns:xlink="http://www.w3.org/1999/xlink" width="48pt" height="48pt" viewBox="0 0 48 48" version="1.1">
<defs>
<linearGradient id="linear0" gradientUnits="userSpaceOnUse" x1="127" y1="233.5" x2="127" y2="-168.666656" gradientTransform="matrix(0.093759,0,0,0.093759,0.992281,20.215711)">
<stop offset="0" style="stop-color:rgb(100%,43.921569%,26.27451%);stop-opacity:1;"/>
<stop offset="1" style="stop-color:rgb(100%,54.117647%,39.607843%);stop-opacity:1;"/>
</linearGradient>
<radialGradient id="radial0" gradientUnits="userSpaceOnUse" cx="450.908936" cy="189.579361" fx="450.908936" fy="189.579361" r="21.166656" gradientTransform="matrix(0.000000261256,-0.117199,-0.210958,-0.000000152308,68.572774,95.392994)">
<stop offset="0" style="stop-color:rgb(0%,0%,0%);stop-opacity:0.313725;"/>
<stop offset="0.222222" style="stop-color:rgb(0%,0%,0%);stop-opacity:0.27451;"/>
<stop offset="1" style="stop-color:rgb(0%,0%,0%);stop-opacity:0;"/>
</radialGradient>
<radialGradient id="radial1" gradientUnits="userSpaceOnUse" cx="450.908936" cy="189.579361" fx="450.908936" fy="189.579361" r="21.166656" gradientTransform="matrix(-0.000000261256,0.117199,0.210958,0.000000152308,-17.367132,-11.291223)">
<stop offset="0" style="stop-color:rgb(0%,0%,0%);stop-opacity:0.313725;"/>
<stop offset="0.222222" style="stop-color:rgb(0%,0%,0%);stop-opacity:0.27451;"/>
<stop offset="1" style="stop-color:rgb(0%,0%,0%);stop-opacity:0;"/>
</radialGradient>
<radialGradient id="radial2" gradientUnits="userSpaceOnUse" cx="450.908936" cy="189.579361" fx="450.908936" fy="189.579361" r="21.166656" gradientTransform="matrix(-0.000000261256,-0.117199,0.210958,-0.000000152308,-17.367132,95.392994)">
<stop offset="0" style="stop-color:rgb(0%,0%,0%);stop-opacity:0.313725;"/>
<stop offset="0.222222" style="stop-color:rgb(0%,0%,0%);stop-opacity:0.27451;"/>
<stop offset="1" style="stop-color:rgb(0%,0%,0%);stop-opacity:0;"/>
</radialGradient>
<radialGradient id="radial3" gradientUnits="userSpaceOnUse" cx="450.908936" cy="189.579361" fx="450.908936" fy="189.579361" r="21.166656" gradientTransform="matrix(0.000000261256,0.117199,-0.210958,0.000000152308,68.572771,-11.291224)">
<stop offset="0" style="stop-color:rgb(0%,0%,0%);stop-opacity:0.313725;"/>
<stop offset="0.222222" style="stop-color:rgb(0%,0%,0%);stop-opacity:0.27451;"/>
<stop offset="1" style="stop-color:rgb(0%,0%,0%);stop-opacity:0;"/>
</radialGradient>
<linearGradient id="linear1" gradientUnits="userSpaceOnUse" x1="255.323059" y1="233.5" x2="255.323044" y2="254.666656" gradientTransform="matrix(0.0200401,0,0,0.093759,20.486125,20.158175)">
<stop offset="0" style="stop-color:rgb(0%,0%,0%);stop-opacity:0.27451;"/>
<stop offset="1" style="stop-color:rgb(0%,0%,0%);stop-opacity:0;"/>
</linearGradient>
<linearGradient id="linear2" gradientUnits="userSpaceOnUse" x1="254" y1="-168.666672" x2="254" y2="233.5" gradientTransform="matrix(0.093759,0,0,0.093759,1.788046,20.158175)">
<stop offset="0" style="stop-color:rgb(70.196078%,61.568627%,85.882353%);stop-opacity:1;"/>
<stop offset="1" style="stop-color:rgb(49.411765%,34.117647%,76.078431%);stop-opacity:1;"/>
</linearGradient>
<linearGradient id="linear3" gradientUnits="userSpaceOnUse" x1="275.166656" y1="-168.666656" x2="275.166656" y2="233.5" gradientTransform="matrix(0.111634,0,0,0.0703192,-4.917938,20.918028)">
<stop offset="0" style="stop-color:rgb(74.117647%,74.117647%,74.117647%);stop-opacity:1;"/>
<stop offset="1" style="stop-color:rgb(93.333333%,93.333333%,93.333333%);stop-opacity:1;"/>
</linearGradient>
<linearGradient id="linear4" gradientUnits="userSpaceOnUse" x1="275.160614" y1="300.527557" x2="275.160614" y2="-235.694687" gradientTransform="matrix(0.111634,0,0,0.0703192,-4.917938,20.918028)">
<stop offset="0" style="stop-color:rgb(74.117647%,74.117647%,74.117647%);stop-opacity:1;"/>
<stop offset="1" style="stop-color:rgb(93.333333%,93.333333%,93.333333%);stop-opacity:1;"/>
</linearGradient>
</defs>
<g id="surface1">
<path style=" stroke:none;fill-rule:nonzero;fill:url(#linear0);" d="M 21.832031 4.402344 C 11.386719 4.402344 2.976562 12.808594 2.976562 23.253906 C 2.976562 33.699219 11.386719 42.109375 21.832031 42.109375 C 22.332031 42.109375 22.828125 42.089844 23.320312 42.050781 C 13.574219 41.296875 5.953125 33.199219 5.953125 23.253906 C 5.953125 13.3125 13.574219 5.214844 23.320312 4.460938 C 22.828125 4.421875 22.332031 4.402344 21.832031 4.402344 Z M 21.832031 4.402344 "/>
<path style=" stroke:none;fill-rule:nonzero;fill:url(#radial0);" d="M 29.074219 42.050781 L 33.046875 42.050781 L 33.046875 40.066406 L 29.074219 40.066406 Z M 29.074219 42.050781 "/>
<path style=" stroke:none;fill-rule:nonzero;fill:url(#radial1);" d="M 22.128906 42.050781 L 18.160156 42.050781 L 18.160156 44.035156 L 22.128906 44.035156 Z M 22.128906 42.050781 "/>
<path style=" stroke:none;fill-rule:nonzero;fill:url(#radial2);" d="M 22.128906 42.050781 L 18.160156 42.050781 L 18.160156 40.066406 L 22.128906 40.066406 Z M 22.128906 42.050781 "/>
<path style=" stroke:none;fill-rule:nonzero;fill:url(#radial3);" d="M 29.074219 42.050781 L 33.046875 42.050781 L 33.046875 44.035156 L 29.074219 44.035156 Z M 29.074219 42.050781 "/>
<path style=" stroke:none;fill-rule:nonzero;fill:url(#linear1);" d="M 22.128906 41.554688 L 29.074219 41.554688 L 29.074219 44.035156 L 22.128906 44.035156 Z M 22.128906 41.554688 "/>
<path style=" stroke:none;fill-rule:nonzero;fill:url(#linear2);" d="M 25.601562 4.34375 C 36.015625 4.34375 44.457031 12.785156 44.457031 23.199219 C 44.457031 33.609375 36.015625 42.050781 25.601562 42.050781 C 15.191406 42.050781 6.75 33.609375 6.75 23.199219 C 6.75 12.785156 15.191406 4.34375 25.601562 4.34375 Z M 25.601562 4.34375 "/>
<path style=" stroke:none;fill-rule:nonzero;fill:rgb(0%,0%,0%);fill-opacity:0.196078;" d="M 25.601562 42.050781 C 15.15625 42.050781 6.75 33.640625 6.75 23.199219 C 6.75 23.136719 6.75 23.074219 6.75 23.011719 C 6.847656 33.371094 15.21875 41.679688 25.601562 41.679688 C 35.984375 41.679688 44.355469 33.371094 44.453125 23.011719 C 44.457031 23.074219 44.457031 23.136719 44.457031 23.199219 C 44.457031 33.640625 36.046875 42.050781 25.601562 42.050781 Z M 25.601562 42.050781 "/>
<path style=" stroke:none;fill-rule:nonzero;fill:rgb(100%,100%,100%);fill-opacity:0.392157;" d="M 25.601562 4.34375 C 15.15625 4.34375 6.75 12.753906 6.75 23.199219 C 6.75 23.257812 6.75 23.320312 6.75 23.382812 C 6.847656 13.023438 15.21875 4.714844 25.601562 4.714844 C 35.984375 4.714844 44.355469 13.023438 44.453125 23.382812 C 44.457031 23.320312 44.457031 23.257812 44.457031 23.199219 C 44.457031 12.753906 36.046875 4.34375 25.601562 4.34375 Z M 25.601562 4.34375 "/>
<path style=" stroke:none;fill-rule:nonzero;fill:url(#linear3);" d="M 8.265625 15.753906 C 7.855469 16.710938 7.523438 17.703125 7.277344 18.730469 L 43.929688 18.730469 C 43.679688 17.703125 43.347656 16.710938 42.941406 15.753906 Z M 6.808594 21.710938 C 6.769531 22.199219 6.75 22.695312 6.75 23.199219 C 6.75 23.699219 6.769531 24.195312 6.808594 24.6875 L 44.398438 24.6875 C 44.4375 24.195312 44.457031 23.699219 44.457031 23.199219 C 44.457031 22.695312 44.4375 22.199219 44.398438 21.710938 Z M 7.277344 27.664062 C 7.523438 28.691406 7.855469 29.6875 8.265625 30.640625 L 42.941406 30.640625 C 43.347656 29.6875 43.679688 28.691406 43.929688 27.664062 Z M 7.277344 27.664062 "/>
<path style=" stroke:none;fill-rule:nonzero;fill:url(#linear4);" d="M 8.265625 15.753906 C 7.855469 16.710938 7.523438 17.703125 7.277344 18.730469 L 43.929688 18.730469 C 43.679688 17.703125 43.347656 16.710938 42.941406 15.753906 Z M 6.808594 21.710938 C 6.769531 22.199219 6.75 22.695312 6.75 23.199219 C 6.75 23.699219 6.769531 24.195312 6.808594 24.6875 L 44.398438 24.6875 C 44.4375 24.195312 44.457031 23.699219 44.457031 23.199219 C 44.457031 22.695312 44.4375 22.199219 44.398438 21.710938 Z M 7.277344 27.664062 C 7.523438 28.691406 7.855469 29.6875 8.265625 30.640625 L 42.941406 30.640625 C 43.347656 29.6875 43.679688 28.691406 43.929688 27.664062 Z M 7.277344 27.664062 "/>
<path style=" stroke:none;fill-rule:nonzero;fill:rgb(100%,100%,100%);fill-opacity:0.392157;" d="M 7.402344 18.730469 C 7.359375 18.898438 7.316406 19.0625 7.277344 19.226562 L 43.929688 19.226562 C 43.886719 19.0625 43.847656 18.898438 43.800781 18.730469 Z M 6.75 23.445312 C 6.75 23.527344 6.75 23.609375 6.75 23.695312 C 6.75 24.195312 6.769531 24.691406 6.808594 25.183594 L 44.398438 25.183594 C 44.4375 24.691406 44.457031 24.195312 44.457031 23.695312 C 44.457031 23.609375 44.457031 23.527344 44.453125 23.445312 C 44.449219 23.863281 44.429688 24.277344 44.398438 24.6875 L 6.808594 24.6875 C 6.773438 24.277344 6.757812 23.863281 6.75 23.445312 Z M 7.277344 28.160156 C 7.523438 29.1875 7.855469 30.183594 8.265625 31.136719 L 42.941406 31.136719 C 43.347656 30.183594 43.679688 29.1875 43.929688 28.160156 L 43.800781 28.160156 C 43.570312 29.011719 43.28125 29.839844 42.941406 30.640625 L 8.265625 30.640625 C 7.921875 29.839844 7.632812 29.011719 7.402344 28.160156 Z M 7.277344 28.160156 "/>
<path style=" stroke:none;fill-rule:nonzero;fill:rgb(12.941177%,12.941177%,12.941177%);fill-opacity:1;" d="M 25.601562 4.203125 C 15.082031 4.203125 6.609375 12.675781 6.609375 23.199219 C 6.609375 33.71875 15.082031 42.191406 25.601562 42.191406 C 36.121094 42.191406 44.597656 33.71875 44.597656 23.199219 C 44.597656 12.675781 36.121094 4.203125 25.601562 4.203125 Z M 25.601562 4.484375 C 35.972656 4.484375 44.316406 12.828125 44.316406 23.199219 C 44.316406 33.566406 35.972656 41.910156 25.601562 41.910156 C 15.234375 41.910156 6.890625 33.566406 6.890625 23.199219 C 6.890625 12.828125 15.234375 4.484375 25.601562 4.484375 Z M 25.601562 4.484375 "/>
<path style=" stroke:none;fill-rule:nonzero;fill:rgb(0%,0%,0%);fill-opacity:0.235294;" d="M 8.265625 15.753906 C 7.855469 16.710938 7.523438 17.703125 7.277344 18.730469 L 7.402344 18.730469 C 7.632812 17.878906 7.921875 17.050781 8.265625 16.25 L 42.941406 16.25 C 43.28125 17.050781 43.570312 17.878906 43.800781 18.730469 L 43.929688 18.730469 C 43.679688 17.703125 43.347656 16.710938 42.941406 15.753906 Z M 6.808594 21.710938 C 6.769531 22.199219 6.75 22.695312 6.75 23.199219 C 6.75 23.28125 6.75 23.363281 6.75 23.445312 C 6.757812 23.027344 6.773438 22.613281 6.808594 22.207031 L 44.398438 22.207031 C 44.429688 22.613281 44.449219 23.027344 44.453125 23.445312 C 44.457031 23.363281 44.457031 23.28125 44.457031 23.199219 C 44.457031 22.695312 44.4375 22.199219 44.398438 21.710938 Z M 7.277344 27.664062 C 7.316406 27.828125 7.359375 27.996094 7.402344 28.160156 L 43.800781 28.160156 C 43.847656 27.996094 43.886719 27.828125 43.929688 27.664062 Z M 7.277344 27.664062 "/>
<path style="fill:none;stroke-width:11.338583;stroke-linecap:round;stroke-linejoin:round;stroke:rgb(12.941177%,12.941177%,12.941177%);stroke-opacity:1;stroke-miterlimit:4;" d="M 333.196545 635.057499 C 316.66269 673.636494 303.278141 713.632676 293.357828 755.046047 L 1770.854607 755.046047 C 1760.776829 713.632676 1747.392279 673.636494 1731.01589 635.057499 Z M 274.461994 875.19206 C 272.887341 894.875221 272.100014 914.873312 272.100014 935.186334 C 272.100014 955.34189 272.887341 975.339982 274.461994 995.180608 L 1789.750441 995.180608 C 1791.325094 975.339982 1792.112421 955.34189 1792.112421 935.186334 C 1792.112421 914.873312 1791.325094 894.875221 1789.750441 875.19206 Z M 293.357828 1115.169156 C 303.278141 1156.582526 316.66269 1196.736174 333.196545 1235.157704 L 1731.01589 1235.157704 C 1747.392279 1196.736174 1760.776829 1156.582526 1770.854607 1115.169156 Z M 293.357828 1115.169156 " transform="matrix(0.0248071,0,0,0.0248071,0,0)"/>
<path style=" stroke:none;fill-rule:nonzero;fill:rgb(100%,100%,100%);fill-opacity:0.392157;" d="M 14.546875 9.800781 C 16.183594 8.796875 18.03125 8.835938 18.675781 9.882812 C 19.320312 10.933594 18.519531 12.601562 16.886719 13.605469 C 15.253906 14.609375 13.40625 14.574219 12.757812 13.523438 C 12.113281 12.472656 12.914062 10.804688 14.546875 9.800781 Z M 14.546875 9.800781 "/>
</g>
</svg>
